database-off-outline.svg

<svg fill="currentColor" viewBox="0 0 24 24"><path d="M2.39 1.73 1.11 3l3.1 3.1c-.13.29-.21.59-.21.9v10c0 2.21 3.59 4 8 4 2.3 0 4.38-.5 5.84-1.27l3 3 1.27-1.27zM6 9.64c.76.43 1.7.78 2.76 1.01L12.11 14H12c-2.42 0-4.7-.6-6-1.55zM12 19c-3.87 0-6-1.5-6-2v-2.23c1.61.78 3.72 1.23 6 1.23.68 0 1.34-.05 2-.13l2.34 2.36c-1.01.42-2.47.77-4.34.77M8.64 5.44 7.06 3.86C8.42 3.33 10.13 3 12 3c4.42 0 8 1.79 8 4v9.8l-2-2v-.03.01l-1.55-1.53c.6-.22 1.13-.49 1.55-.8V9.64c-1.03.58-2.39 1.01-3.94 1.22L12.19 9C15.94 8.94 18 7.5 18 7s-2.13-2-6-2c-1.34 0-2.46.18-3.36.44"/></svg>

<svg  viewBox="0 0 24 24" fill="currentColor"><path  d="M2.39 1.73L1.11 3L4.21 6.1C4.08 6.39 4 6.69 4 7V17C4 19.21 7.59 21 12 21C14.3 21 16.38 20.5 17.84 19.73L20.84 22.73L22.11 21.46L2.39 1.73M6 9.64C6.76 10.07 7.7 10.42 8.76 10.65L12.11 14C12.07 14 12.04 14 12 14C9.58 14 7.3 13.4 6 12.45V9.64M12 19C8.13 19 6 17.5 6 17V14.77C7.61 15.55 9.72 16 12 16C12.68 16 13.34 15.95 14 15.87L16.34 18.23C15.33 18.65 13.87 19 12 19M8.64 5.44L7.06 3.86C8.42 3.33 10.13 3 12 3C16.42 3 20 4.79 20 7V16.8L18 14.8V14.77L18 14.78L16.45 13.25C17.05 13.03 17.58 12.76 18 12.45V9.64C16.97 10.22 15.61 10.65 14.06 10.86L12.19 9C15.94 8.94 18 7.5 18 7C18 6.5 15.87 5 12 5C10.66 5 9.54 5.18 8.64 5.44Z"/></svg>
